X: 585
T: Acharavi, The
R: waltz
M: 3/4
K: Amixolydian
A (3BBA|:c3 B (3BBA|e3 A (3ABA|G>A d>A e2|e3 A (3ABA|
c3 B (3BBA|e3 A (3ABA|(3GGA (3ABA (3BBA|(3FFA (3zBA (3BBA|
c3 B (3BBA|e3 A (3ABA|g3 a (3ffd|e3 E (3AzB|
c3 B (3BBA|G3 A (3EED|F>A z E (3EED|E2 A z (3BBA:|
|:F>A z E (3EED|F>A z E (3EED|(3EF=c c>D (3EED|(3EF=c c>D (3EED|
[1 d>D c>D A>D|G3 A (3EED|F>A z E (3EED|E>F G3 F:|
[2 d3 e c>G|A2 A>D E>G|A2 A>D E>G|B3||

